**kern	**silbe	**harmony	**phrase	**leadinstrument	**rhyme	**timestamp	**harte
*ICvox	*	*M4/4	*	*	*	*	*M4/4
*VRlead	*	*	*	*	*	*	*
*Hstimme	*	*	*	*	*	*	*
*F:	*	*F:	*	*	*	*	*F:
*M4/4	*	*	*	*	*	*	*
*clefG2	*	*	*	*	*	*	*
r;	.	1r;	.	r	.	0	N.C.
=1	=1	=1	=1	=1	=1	=1	=1
*>Letter>A	*>Letter>A	*>Letter>A	*>Letter>A	*>Letter>A	*>Letter>A	*>Letter>A	*>Letter>A
*>Label>Intro	*>Label>Intro	*>Label>Intro	*>Label>Intro	*>Label>Intro	*>Label>Intro	*>Label>Intro	*>Label>Intro
1r	.	1FM	newline	r	.	2.229	F:maj
=2	=2	=2	=2	=2	=2	=2	=2
1r	.	1FM	.	r	.	4.739	F:maj
=3	=3	=3	=3	=3	=3	=3	=3
1r	.	1FM	.	r	.	6.746	F:maj
=4	=4	=4	=4	=4	=4	=4	=4
1r	.	1FM	.	r	.	8.754	F:maj
=5	=5	=5	=5	=5	=5	=5	=5
*>Letter>B	*>Letter>B	*>Letter>B	*>Letter>B	*>Letter>B	*>Letter>B	*>Letter>B	*>Letter>B
*>Label>Verse	*>Label>Verse	*>Label>Verse	*>Label>Verse	*>Label>Verse	*>Label>Verse	*>Label>Verse	*>Label>Verse
4r	.	1FM	newline	voice	.	10.761	F:maj
8F	See	.	.	.	A	.	.
8G	the	.	.	.	.	.	.
4A	way	.	.	.	.	.	.
4B-	he	.	.	.	.	.	.
=6	=6	=6	=6	=6	=6	=6	=6
8c	walks	1FM	.	voice	.	12.748	F:maj
4c	down	.	.	.	.	.	.
8d	the	.	.	.	.	.	.
4c	street	.	.	.	A	.	.
4r	.	.	.	.	.	.	.
=7	=7	=7	=7	=7	=7	=7	=7
4r	.	1FM	.	voice	.	14.734	F:maj
8F	Watch	.	.	.	.	.	.
8G	the	.	.	.	.	.	.
4A	way	.	.	.	.	.	.
4B-	he	.	.	.	.	.	.
=8	=8	=8	=8	=8	=8	=8	=8
8c	shuf-	1FM	.	voice	.	16.721	F:maj
4c	-fles	.	.	.	.	.	.
8d	his	.	.	.	.	.	.
4c	feet	.	.	.	A	.	.
4r	.	.	.	.	.	.	.
=9	=9	=9	=9	=9	=9	=9	=9
16a	My,	1Dm	newline	voice	B	18.707	D:min
16g	he	.	.	.	.	.	.
[8f	holds	.	.	.	.	.	.
8f]	_	.	.	.	.	.	.
8e	his	.	.	.	.	.	.
16f	head	.	.	.	.	.	.
16e	up	.	.	.	.	.	.
[8d	high	.	.	.	B	.	.
8d]	_	.	.	.	.	.	.
8c	When	.	.	.	.	.	.
=10	=10	=10	=10	=10	=10	=10	=10
8d	he	1B-M	.	voice	.	20.696	B-:maj
8c	goes	.	.	.	.	.	.
8d	wal-	.	.	.	.	.	.
8c	-king	.	.	.	.	.	.
8d	by	.	.	.	B	.	.
8c	_	.	.	.	.	.	.
8d	_	.	.	.	.	.	.
8c	_	.	.	.	.	.	.
=11	=11	=11	=11	=11	=11	=11	=11
8d	_	1CM	.	voice	.	22.686	C:maj
4.c	_	.	.	.	.	.	.
4r	.	.	.	.	.	.	.
8r	.	.	.	.	.	.	.
[8B-	he's	.	.	.	.	.	.
=12	=12	=12	=12	=12	=12	=12	=12
8B-]	_	1CM	.	voice	.	24.675	C:maj
8d	my	.	.	.	B	.	.
8e	guy	.	.	.	B	.	.
4.c	_	.	.	.	.	.	.
4r	.	.	.	.	.	.	.
=13	=13	=13	=13	=13	=13	=13	=13
4r	.	1FM	newline	voice	.	26.664	F:maj
8F	When	.	.	.	.	.	.
8G	he	.	.	.	.	.	.
4A	holds	.	.	.	.	.	.
4B-	my	.	.	.	.	.	.
=14	=14	=14	=14	=14	=14	=14	=14
8c	hand,	1FM	.	voice	.	28.649	F:maj
4c	I'm	.	.	.	.	.	.
8d	so	.	.	.	.	.	.
2c	proud	.	.	.	C	.	.
=15	=15	=15	=15	=15	=15	=15	=15
4r	.	1FM	.	voice	.	30.634	F:maj
8F	'Cause	.	.	.	.	.	.
8G	he's	.	.	.	.	.	.
4A	not	.	.	.	.	.	.
4B-	just	.	.	.	.	.	.
=16	=16	=16	=16	=16	=16	=16	=16
8c	one	1FM	.	voice	.	32.62	F:maj
4c	of	.	.	.	.	.	.
8d	the	.	.	.	.	.	.
4c	crowd	.	.	.	C	.	.
4r	.	.	.	.	.	.	.
=17	=17	=17	=17	=17	=17	=17	=17
8a	My	1Dm	newline	voice	.	34.605	D:min
16g	ba-	.	.	.	.	.	.
[16f	-by's	.	.	.	.	.	.
8f]	_	.	.	.	.	.	.
8e	al-	.	.	.	.	.	.
16f	-ways	.	.	.	.	.	.
16e	the	.	.	.	.	.	.
[8d	one	.	.	.	D	.	.
8d]	_	.	.	.	.	.	.
8c	to	.	.	.	.	.	.
=18	=18	=18	=18	=18	=18	=18	=18
8d	try	1B-M	.	voice	.	36.595	B-:maj
8c	the	.	.	.	.	.	.
8d	things	.	.	.	.	.	.
8c	they've	.	.	.	.	.	.
8d	ne-	.	.	.	.	.	.
8c	-ver	.	.	.	.	.	.
8d	done	.	.	.	D	.	.
8F	And	.	.	.	.	.	.
=19	=19	=19	=19	=19	=19	=19	=19
8d	just	1GM	.	voice	.	38.585	G:maj
8d	be-	.	.	.	.	.	.
8d	-cause	.	.	.	D	.	.
8e	of	.	.	.	.	.	.
8f	that,	.	.	.	.	.	.
8r	.	.	.	.	.	.	.
4e	they	.	.	.	E	.	.
=20	=20	=20	=20	=20	=20	=20	=20
4.g	say	2CM	.	voice	E	40.575	C:maj
8c	_	.	.	.	.	.	.
2a-	_	2D-M	.	voice	.	41.57	D-:maj
=21	=21	=21	=21	=21	=21	=21	=21
*>Letter>C	*>Letter>C	*>Letter>C	*>Letter>C	*>Letter>C	*>Letter>C	*>Letter>C	*>Letter>C
*>Label>Chorus	*>Label>Chorus	*>Label>Chorus	*>Label>Chorus	*>Label>Chorus	*>Label>Chorus	*>Label>Chorus	*>Label>Chorus
*G-:	*	*G-:	*G-:	*G-:	*	*G-:	*G-:
4r	.	1G-M	newline	voice	.	42.565	G-:maj
8b-	He's	.	.	.	.	.	.
8b-	a	.	.	.	.	.	.
8b-	re-	.	.	.	(F	.	.
8a-	-bel	.	.	.	f)	.	.
8a-	and	.	.	.	.	.	.
8g-	he'll	.	.	.	.	.	.
=22	=22	=22	=22	=22	=22	=22	=22
16a-	ne-	1E-m	.	voice	(F	44.57	E-:min
16g-	-ver	.	.	.	f)	.	.
8r	.	.	.	.	.	.	.
8g-	be	.	.	.	.	.	.
8r	.	.	.	.	.	.	.
8g-	a-	.	.	.	.	.	.
8e-	-ny	.	.	.	.	.	.
4g-	good	.	.	.	G	.	.
=23	=23	=23	=23	=23	=23	=23	=23
4r	.	1G-M	.	voice	.	46.575	G-:maj
8b-	He's	.	.	.	.	.	.
8b-	a	.	.	.	.	.	.
8b-	re-	.	.	.	(F	.	.
8a-	-bel	.	.	.	f)	.	.
8a-	'cause	.	.	.	D	.	.
8g-	he	.	.	.	.	.	.
=24	=24	=24	=24	=24	=24	=24	=24
16a-	ne-	1D-Mm	.	voice	(F	48.58	D-:7
16g-	-ver	.	.	.	f)	.	.
16a-	e-	.	.	.	(F	.	.
16g-	-ver	.	.	.	f)	.	.
4a-	does	.	.	.	D	.	.
8a-	what	.	.	.	.	.	.
8a-	he	.	.	.	.	.	.
8a-	should	.	.	.	G	.	.
8d-	But	.	.	.	.	.	.
=25	=25	=25	=25	=25	=25	=25	=25
8e-	just	1BM	newline	voice	.	50.585	B:maj
8g-	be-	.	.	.	.	.	.
8g-	-cause	.	.	.	D	.	.
8cc-	he	.	.	.	.	.	.
8cc-	does-	.	.	.	D	.	.
8g-	-n't	.	.	.	.	.	.
8g-	do	.	.	.	.	.	.
8e-	what	.	.	.	.	.	.
=26	=26	=26	=26	=26	=26	=26	=26
8r	.	1B-M	.	voice	.	52.566	B-:maj
16b-	eve-	.	.	.	(F	.	.
16b-	-ry-	.	.	.	a)	.	.
8b-	-bo-	.	.	.	.	.	.
8b-	-dy	.	.	.	.	.	.
4b-	else	.	.	.	.	.	.
4f	does	.	.	.	D	.	.
=27	=27	=27	=27	=27	=27	=27	=27
8r	.	1E-m	.	voice	.	54.548	E-:min
8B-	Oh	.	.	.	.	.	.
8b-	that's	.	.	.	.	.	.
8b-	no	.	.	.	.	.	.
8b-	re-	.	.	.	A	.	.
8a-	-ason	.	.	.	.	.	.
4g-	why	.	.	.	.	.	.
=28	=28	=28	=28	=28	=28	=28	=28
8a-	I	2BM	.	voice	.	56.529	B:maj
8g-	can't	.	.	.	.	.	.
8g-	give	.	.	.	.	.	.
8g-	him	.	.	.	.	.	.
8b-	all	2A-M	.	voice	.	57.52	A-:maj
8a-	my	.	.	.	.	.	.
8a-	love	.	.	.	D	.	.
8r	.	.	.	.	.	.	.
=29	=29	=29	=29	=29	=29	=29	=29
8b-	He	1G-M	newline	voice	A	58.511	G-:maj
8b-	is	.	.	.	.	.	.
8b-	al-	.	.	.	.	.	.
8a-	-ways	.	.	.	.	.	.
8b-	good	.	.	.	.	.	.
16a-	to	.	.	.	.	.	.
[16g-	me,	.	.	.	A	.	.
16g-]	_	.	.	.	.	.	.
16r	.	.	.	.	.	.	.
8r	.	.	.	.	.	.	.
=30	=30	=30	=30	=30	=30	=30	=30
8b-	al-	1E-m	.	voice	.	60.507	E-:min
8b-	-ways	.	.	.	.	.	.
8b-	treats	.	.	.	A	.	.
8a-	me	.	.	.	a	.	.
8b-	ten-	.	.	.	.	.	.
16a-	-der-	.	.	.	.	.	.
[16g-	-ly	.	.	.	A	.	.
16g-]	_	.	.	.	.	.	.
16r	.	.	.	.	.	.	.
8e-	'Cause	.	.	.	.	.	.
=31	=31	=31	=31	=31	=31	=31	=31
8g-	he's	1BM	.	voice	.	62.504	B:maj
16g-	not	.	.	.	.	.	.
16g-	a	.	.	.	.	.	.
16g-	re-	.	.	.	(F	.	.
16g-	-bel,	.	.	.	f)	.	.
8r	.	.	.	.	.	.	.
8.g-	no,	.	.	.	.	.	.
16a-	no,	.	.	.	.	.	.
8g-	no,	.	.	.	.	.	.
8r	.	.	.	.	.	.	.
=32	=32	=32	=32	=32	=32	=32	=32
8a-	He's	1D-Mm	.	voice	.	64.501	D-:7
16a-	not	.	.	.	.	.	.
16a-	a	.	.	.	.	.	.
16a-	re-	.	.	.	(F	.	.
16a-	-bel,	.	.	.	f)	.	.
8r	.	.	.	.	.	.	.
8.a-	no,	.	.	.	.	.	.
16b-	no,	.	.	.	.	.	.
16a-	no,	.	.	.	.	.	.
16r	.	.	.	.	.	.	.
8b-	to	.	.	.	.	.	.
=33	=33	=33	=33	=33	=33	=33	=33
[2b-	me	1G-M	newline	voice	A	66.498	G-:maj
8b-]	_	.	.	.	.	.	.
8a-	_	.	.	.	.	.	.
8b-	_	.	.	.	.	.	.
8a-	_	.	.	.	.	.	.
=34	=34	=34	=34	=34	=34	=34	=34
8b-	_	1D-M	.	voice	.	68.496	D-:maj
[4.a-	_	.	.	.	.	.	.
4a-]	_	.	.	.	.	.	.
4r	.	.	.	.	.	.	.
=35	=35	=35	=35	=35	=35	=35	=35
*>Letter>D	*>Letter>D	*>Letter>D	*>Letter>D	*>Letter>D	*>Letter>D	*>Letter>D	*>Letter>D
*>Label>Interlude	*>Label>Interlude	*>Label>Interlude	*>Label>Interlude	*>Label>Interlude	*>Label>Interlude	*>Label>Interlude	*>Label>Interlude
1r	.	1G-M	newline	saxophone	.	70.495	G-:maj
=36	=36	=36	=36	=36	=36	=36	=36
1r	.	1E-m	.	saxophone	.	72.495	E-:min
=37	=37	=37	=37	=37	=37	=37	=37
1r	.	1G-M	.	saxophone	.	74.494	G-:maj
=38	=38	=38	=38	=38	=38	=38	=38
1r	.	1E-m	.	saxophone	.	76.494	E-:min
=39	=39	=39	=39	=39	=39	=39	=39
1r	.	1BM	newline	saxophone	.	78.493	B:maj
=40	=40	=40	=40	=40	=40	=40	=40
1r	.	1D-M	.	saxophone	.	80.486	D-:maj
=41	=41	=41	=41	=41	=41	=41	=41
1r	.	1BM	.	saxophone	.	82.478	B:maj
=42	=42	=42	=42	=42	=42	=42	=42
1r	.	1D-M	.	saxophone	.	84.471	D-:maj
=43	=43	=43	=43	=43	=43	=43	=43
*>Letter>E	*>Letter>E	*>Letter>E	*>Letter>E	*>Letter>E	*>Letter>E	*>Letter>E	*>Letter>E
*>Label>Bridge	*>Label>Bridge	*>Label>Bridge	*>Label>Bridge	*>Label>Bridge	*>Label>Bridge	*>Label>Bridge	*>Label>Bridge
16b-	If	1E-m	newline	voice	.	86.463	E-:min
16r	.	.	.	.	.	.	.
16a-	they	.	.	.	E	.	.
16r	.	.	.	.	.	.	.
16g-	don't	.	.	.	.	.	.
16r	.	.	.	.	.	.	.
16f	like	.	.	.	B	.	.
16r	.	.	.	.	.	.	.
16g-	him	.	.	.	.	.	.
8f	that	.	.	.	.	.	.
[16e-	way	.	.	.	E	.	.
8e-]	_	.	.	.	.	.	.
8d-	They	.	.	.	E	.	.
=44	=44	=44	=44	=44	=44	=44	=44
8e-	won't	1BM	.	voice	.	88.455	B:maj
8d-	like	.	.	.	B	.	.
16e-	me	.	.	.	.	.	.
8.d-	af-	.	.	.	.	.	.
8.e-	-ter	.	.	.	.	.	.
16d-	to-	.	.	.	.	.	.
16e-	-day	.	.	.	E	.	.
16r	.	.	.	.	.	.	.
8d-	And	.	.	.	.	.	.
=45	=45	=45	=45	=45	=45	=45	=45
8e-	I'll	1A-M	.	voice	B	90.448	A-:maj
8e-	be	.	.	.	.	.	.
8e-	stan-	.	.	.	.	.	.
8f	-ding	.	.	.	.	.	.
6g-	right	.	.	.	B	.	.
6f	by	.	.	.	.	.	.
6g-	his	.	.	.	.	.	.
=46	=46	=46	=46	=46	=46	=46	=46
4a-	side	1D-Mm	.	voice	B	92.441	D-:7
8r	.	.	.	.	.	.	.
8b-	when	.	.	.	.	.	.
4b-	they	.	.	.	E	.	.
8a-	say	.	.	.	E	.	.
8g-	_	.	.	.	.	.	.
=47	=47	=47	=47	=47	=47	=47	=47
*>Letter>C2	*>Letter>C2	*>Letter>C2	*>Letter>C2	*>Letter>C2	*>Letter>C2	*>Letter>C2	*>Letter>C2
*>Label>Chorus	*>Label>Chorus	*>Label>Chorus	*>Label>Chorus	*>Label>Chorus	*>Label>Chorus	*>Label>Chorus	*>Label>Chorus
4r	.	1G-M	newline	voice	.	94.433	G-:maj
8b-	He's	.	.	.	A	.	.
8b-	a	.	.	.	.	.	.
8b-	re-	.	.	.	(F	.	.
8a-	-bel	.	.	.	f)	.	.
8a-	and	.	.	.	.	.	.
8g-	he'll	.	.	.	a	.	.
=48	=48	=48	=48	=48	=48	=48	=48
16a-	ne-	1E-m	.	voice	(F	96.428	E-:min
16g-	-ver	.	.	.	f)	.	.
8r	.	.	.	.	.	.	.
8g-	be	.	.	.	A	.	.
8r	.	.	.	.	.	.	.
8g-	a-	.	.	.	.	.	.
8e-	-ny	.	.	.	a	.	.
4g-	good	.	.	.	G	.	.
=49	=49	=49	=49	=49	=49	=49	=49
4r	.	1G-M	.	voice	.	98.422	G-:maj
8b-	He's	.	.	.	A	.	.
8b-	a	.	.	.	.	.	.
8b-	re-	.	.	.	(F	.	.
8a-	-bel	.	.	.	f)	.	.
8a-	'cause	.	.	.	D	.	.
8g-	he	.	.	.	a	.	.
=50	=50	=50	=50	=50	=50	=50	=50
16a-	ne-	1D-Mm	.	voice	(F	100.416	D-:7
16g-	-ver	.	.	.	f)	.	.
16a-	e-	.	.	.	(F	.	.
16g-	-ver	.	.	.	f)	.	.
4a-	does	.	.	.	D	.	.
8a-	what	.	.	.	.	.	.
8a-	he	.	.	.	a	.	.
8a-	should	.	.	.	G	.	.
8d-	But	.	.	.	.	.	.
=51	=51	=51	=51	=51	=51	=51	=51
8e-	just	1BM	newline	voice	.	102.411	B:maj
8g-	be-	.	.	.	(a	.	.
8g-	-cause	.	.	.	D)	.	.
8cc-	he	.	.	.	a	.	.
8cc-	does-	.	.	.	D	.	.
8g-	-n't	.	.	.	.	.	.
8g-	do	.	.	.	.	.	.
8e-	what	.	.	.	.	.	.
=52	=52	=52	=52	=52	=52	=52	=52
8r	.	1B-M	.	voice	.	104.405	B-:maj
16b-	eve-	.	.	.	(F)	.	.
16b-	-ry-	.	.	.	a)	.	.
8b-	-bo-	.	.	.	.	.	.
8b-	-dy	.	.	.	a	.	.
4b-	else	.	.	.	.	.	.
4f	does	.	.	.	D	.	.
=53	=53	=53	=53	=53	=53	=53	=53
8r	.	1E-m	.	voice	.	106.4	E-:min
8B-	Oh	.	.	.	.	.	.
8b-	that's	.	.	.	.	.	.
8b-	no	.	.	.	.	.	.
8b-	re-	.	.	.	(A	.	.
8a-	-ason	.	.	.	d)	.	.
4g-	why	.	.	.	B	.	.
=54	=54	=54	=54	=54	=54	=54	=54
4a-	we	2BM	.	voice	a	108.394	B:maj
4g-	can't	.	.	.	.	.	.
8b-	share	2A-M	.	voice	.	109.392	A-:maj
8a-	a	.	.	.	.	.	.
8a-	love	.	.	.	D	.	.
8r	.	.	.	.	.	.	.
=55	=55	=55	=55	=55	=55	=55	=55
8b-	He	1G-M	newline	voice	A	110.389	G-:maj
8b-	is	.	.	.	.	.	.
8b-	al-	.	.	.	.	.	.
8a-	-ways	.	.	.	.	.	.
8b-	good	.	.	.	G	.	.
16a-	to	.	.	.	.	.	.
[16g-	me,	.	.	.	A	.	.
16g-]	_	.	.	.	.	.	.
16r	.	.	.	.	.	.	.
8r	.	.	.	.	.	.	.
=56	=56	=56	=56	=56	=56	=56	=56
8b-	Good	1E-m	.	voice	G	112.377	E-:min
8b-	to	.	.	.	.	.	.
16b-	him,	.	.	.	.	.	.
8.a-	I	.	.	.	B	.	.
8b-	try	.	.	.	B	.	.
16a-	to	.	.	.	.	.	.
[16g-	be	.	.	.	A	.	.
16g-]	_	.	.	.	.	.	.
16r	.	.	.	.	.	.	.
8e-	'Cause	.	.	.	D	.	.
=57	=57	=57	=57	=57	=57	=57	=57
8g-	he's	1BM	.	voice	a	114.366	B:maj
16g-	not	.	.	.	.	.	.
16g-	a	.	.	.	.	.	.
16g-	re-	.	.	.	(F	.	.
16g-	-bel,	.	.	.	f)	.	.
8r	.	.	.	.	.	.	.
8.g-	no,	.	.	.	.	.	.
16a-	no,	.	.	.	.	.	.
8g-	no,	.	.	.	.	.	.
8r	.	.	.	.	.	.	.
=58	=58	=58	=58	=58	=58	=58	=58
8a-	He's	1D-Mm	.	voice	A	116.354	D-:7
16a-	not	.	.	.	.	.	.
16a-	a	.	.	.	.	.	.
16a-	re-	.	.	.	(F	.	.
16a-	-bel,	.	.	.	f)	.	.
8r	.	.	.	.	.	.	.
8.a-	no,	.	.	.	.	.	.
16b-	no,	.	.	.	.	.	.
16a-	no,	.	.	.	.	.	.
16r	.	.	.	.	.	.	.
8b-	to	.	.	.	.	.	.
=59	=59	=59	=59	=59	=59	=59	=59
2b-	me	1G-M	newline	voice	.	118.342	G-:maj
8r	.	.	.	.	.	.	.
4.b-	Ohh	.	.	.	.	.	.
=60	=60	=60	=60	=60	=60	=60	=60
8g-	he's	1E-m	.	voice	A	120.335	E-:min
16g-	not	.	.	.	.	.	.
16g-	a	.	.	.	.	.	.
16g-	re-	.	.	.	(F	.	.
16g-	-bel,	.	.	.	f)	.	.
8r	.	.	.	.	.	.	.
8.g-	no,	.	.	.	.	.	.
16a-	no,	.	.	.	.	.	.
8g-	no,	.	.	.	.	.	.
8r	.	.	.	.	.	.	.
=61	=61	=61	=61	=61	=61	=61	=61
8b-	He's	1G-M	.	voice	A	122.327	G-:maj
16b-	not	.	.	.	.	.	.
16b-	a	.	.	.	.	.	.
16b-	re-	.	.	.	(F	.	.
16b-	-bel,	.	.	.	f)	.	.
8r	.	.	.	.	.	.	.
8.b-	no,	.	.	.	.	.	.
16b-	no,	.	.	.	.	.	.
8b-	no,	.	.	.	.	.	.
8r	.	.	.	.	.	.	.
=62	=62	=62	=62	=62	=62	=62	=62
8g-	he's	1E-m	.	voice	.	124.32	E-:min
16g-	not	.	.	.	.	.	.
16g-	a	.	.	.	.	.	.
16g-	re-	.	.	.	.	.	.
16g-	-bel,	.	.	.	.	.	.
8r	.	.	.	.	.	.	.
8.g-	no,	.	.	.	.	.	.
16a-	no,	.	.	.	.	.	.
8g-	no,	.	.	.	.	.	.
8r	.	.	.	.	.	.	.
=63	=63	=63	=63	=63	=63	=63	=63
*>Letter>D2	*>Letter>D2	*>Letter>D2	*>Letter>D2	*>Letter>D2	*>Letter>D2	*>Letter>D2	*>Letter>D2
*>Label>Outro	*>Label>Outro	*>Label>Outro	*>Label>Outro	*>Label>Outro	*>Label>Outro	*>Label>Outro	*>Label>Outro
8b-	He's	1G-M	newline	voice	.	126.312	G-:maj
16b-	not	.	.	.	.	.	.
16b-	a	.	.	.	.	.	.
16b-	re-	.	.	.	.	.	.
16b-	-bel,	.	.	.	.	.	.
8r	.	.	.	.	.	.	.
8.b-	no,	.	.	.	.	.	.
16b-	no,	.	.	.	.	.	.
8b-	no,	.	.	.	.	.	.
8r	.	.	.	.	.	.	.
=64	=64	=64	=64	=64	=64	=64	=64
8g-	he's	1E-m	.	voice	.	128.305	E-:min
16g-	not	.	.	.	.	.	.
16g-	a	.	.	.	.	.	.
16g-	re-	.	.	.	.	.	.
16g-	-bel,	.	.	.	.	.	.
8r	.	.	.	.	.	.	.
8.g-	no,	.	.	.	.	.	.
16a-	no,	.	.	.	.	.	.
8g-	no,	.	.	.	.	.	.
8r	.	.	.	.	.	.	.
=65	=65	=65	=65	=65	=65	=65	=65
8b-	He's	1G-M	.	voice	.	130.298	G-:maj
16b-	not	.	.	.	.	.	.
16b-	a	.	.	.	.	.	.
16b-	re-	.	.	.	.	.	.
16b-	-bel,	.	.	.	.	.	.
8r	.	.	.	.	.	.	.
8.b-	no,	.	.	.	.	.	.
16b-	no,	.	.	.	.	.	.
8b-	no,	.	.	.	.	.	.
8r	.	.	.	.	.	.	.
=66	=66	=66	=66	=66	=66	=66	=66
8g-	he's	1E-m	.	voice	.	132.291	E-:min
16g-	not	.	.	.	.	.	.
16g-	a	.	.	.	.	.	.
16g-	re-	.	.	.	.	.	.
16g-	-bel,	.	.	.	.	.	.
8r	.	.	.	.	.	.	.
8.g-	no,	.	.	.	.	.	.
16a-	no,	.	.	.	.	.	.
8g-	no,	.	.	.	.	.	.
8r	.	.	.	.	.	.	.
=67	=67	=67	=67	=67	=67	=67	=67
8b-	He's	1G-M	newline	voice	.	134.284	G-:maj
16b-	not	.	.	.	.	.	.
16b-	a	.	.	.	.	.	.
16b-	re-	.	.	.	.	.	.
16b-	-bel,	.	.	.	.	.	.
8r	.	.	.	.	.	.	.
8.b-	no,	.	.	.	.	.	.
16b-	no,	.	.	.	.	.	.
8b-	no,	.	.	.	.	.	.
8r	.	.	.	.	.	.	.
=68	=68	=68	=68	=68	=68	=68	=68
8g-	he's	1E-m	.	voice	.	136.279	E-:min
16g-	not	.	.	.	.	.	.
16g-	a	.	.	.	.	.	.
16g-	re-	.	.	.	.	.	.
16g-	-bel,	.	.	.	.	.	.
8r	.	.	.	.	.	.	.
8.g-	no,	.	.	.	.	.	.
16a-	no,	.	.	.	.	.	.
8g-	no,	.	.	.	.	.	.
8r	.	.	.	.	.	.	.
=69	=69	=69	=69	=69	=69	=69	=69
8b-	He's	1G-M	.	voice	.	138.274	G-:maj
16b-	not	.	.	.	.	.	.
16b-	a	.	.	.	.	.	.
16b-	re-	.	.	.	.	.	.
16b-	-bel,	.	.	.	.	.	.
8r	.	.	.	.	.	.	.
8.b-	no,	.	.	.	.	.	.
16b-	no,	.	.	.	.	.	.
8b-	no,	.	.	.	.	.	.
8r	.	.	.	.	.	.	.
=70	=70	=70	=70	=70	=70	=70	=70
8g-	he's	1E-m	.	voice	.	140.268	E-:min
16g-	not	.	.	.	.	.	.
16g-	a	.	.	.	.	.	.
16g-	re-	.	.	.	.	.	.
16g-	-bel,	.	.	.	.	.	.
8r	.	.	.	.	.	.	.
8.g-	no,	.	.	.	.	.	.
16a-	no,	.	.	.	.	.	.
8g-	no,	.	.	.	.	.	.
8r	.	.	.	.	.	.	.
=71	=71	=71	=71	=71	=71	=71	=71
*>Label>>Fadeout	*>Label>>Fadeout	*>Label>>Fadeout	*>Label>>Fadeout	*>Label>>Fadeout	*>Label>>Fadeout	*>Label>>Fadeout	*>Label>>Fadeout
8b-	He's	1G-M	newline	voice	.	142.263	G-:maj
16b-	not	.	.	.	.	.	.
16b-	a	.	.	.	.	.	.
16b-	re-	.	.	.	.	.	.
16b-	-bel,	.	.	.	.	.	.
8r	.	.	.	.	.	.	.
8.b-	no,	.	.	.	.	.	.
16b-	no,	.	.	.	.	.	.
8b-	no,	.	.	.	.	.	.
8r	.	.	.	.	.	.	.
=72	=72	=72	=72	=72	=72	=72	=72
8g-	he's	1E-m	.	voice	.	144.256	E-:min
16g-	not	.	.	.	.	.	.
16g-	a	.	.	.	.	.	.
16g-	re-	.	.	.	.	.	.
16g-	-bel,	.	.	.	.	.	.
8r	.	.	.	.	.	.	.
8.g-	no,	.	.	.	.	.	.
16a-	no,	.	.	.	.	.	.
8g-	no,	.	.	.	.	.	.
8r	.	.	.	.	.	.	.
=73	=73	=73	=73	=73	=73	=73	=73
8b-	He's	1G-M	.	voice	.	146.249	G-:maj
16b-	not	.	.	.	.	.	.
16b-	a	.	.	.	.	.	.
16b-	re-	.	.	.	.	.	.
16b-	-bel,	.	.	.	.	.	.
8r	.	.	.	.	.	.	.
8.b-	no,	.	.	.	.	.	.
16b-	no,	.	.	.	.	.	.
8b-	no,	.	.	.	.	.	.
8r	.	.	.	.	.	.	.
=74	=74	=74	=74	=74	=74	=74	=74
8g-	he's	1E-m	.	voice	.	148.243	E-:min
16g-	not	.	.	.	.	.	.
16g-	a	.	.	.	.	.	.
16g-	re-	.	.	.	.	.	.
16g-	-bel,	.	.	.	.	.	.
8r	.	.	.	.	.	.	.
8.g-	no,	.	.	.	.	.	.
16a-	no,	.	.	.	.	.	.
8g-	no,	.	.	.	.	.	.
8r	.	.	.	.	.	.	.
=75	=75	=75	=75	=75	=75	=75	=75
8b-	He's	1G-M	newline	voice	.	150.236	G-:maj
16b-	not	.	.	.	.	.	.
16b-	a	.	.	.	.	.	.
16b-	re-	.	.	.	.	.	.
16b-	-bel,	.	.	.	.	.	.
8r	.	.	.	.	.	.	.
8.b-	no,	.	.	.	.	.	.
16b-	no,	.	.	.	.	.	.
8b-	no,	.	.	.	.	.	.
8r	.	.	.	.	.	.	.
=76	=76	=76	=76	=76	=76	=76	=76
8g-	he's	1E-m	.	voice	.	151.223	E-:min
16g-	not	.	.	.	.	.	.
16g-	a	.	.	.	.	.	.
16g-	re-	.	.	.	.	.	.
16g-	-bel,	.	.	.	.	.	.
8r	.	.	.	.	.	.	.
8.g-	no,	.	.	.	.	.	.
16a-	no,	.	.	.	.	.	.
8g-	no,	.	.	.	.	.	.
8r	.	.	.	.	.	.	.
=77	=77	=77	=77	=77	=77	=77	=77
8b-	He's	1G-M	.	voice	.	152.21	G-:maj
16b-	not	.	.	.	.	.	.
16b-	a	.	.	.	.	.	.
16b-	re-	.	.	.	.	.	.
16b-	-bel,	.	.	.	.	.	.
8r	.	.	.	.	.	.	.
8.b-	no,	.	.	.	.	.	.
16b-	no,	.	.	.	.	.	.
8b-	no,	.	.	.	.	.	.
8r	.	.	.	.	.	.	.
=78	=78	=78	=78	=78	=78	=78	=78
1r	.	1E-m	.	voice	.	153.197	E-:min
r;	.	1r;	.	r	.	154.183	N.C.
r;	.	1r;	.	r	.	156.78	N.C.
*-	*-	*-	*-	*-	*-	*-	*-
!!!BillboardChartDate: 1962/12/08, 1962/09/29
!!!BillboardPeak: 1, 1
!!!BillboardWeeksOnChart: 18, 18
!!!COC: The Crystals
!!!ENC: Nathaniel Condit-Schultz
!!!EST: Awating manual error checking and editing.
!!!OTL: He's A Rebel
!!!RDF**chordsym: original McGill chord annotation + (implied pitch class set, with bass pitch in first position)
!!!RDF**harmony: **recip + pitch class of root + harmonic quality
!!!RDF**leadinstrument: original McGill primary instrumentation annotation
!!!RDF**phrase: newline = linebreak in original McGill transcription
!!!RDF**timestamp: McGill audio timestamp in seconds
!!!RDT: 2017/01/12/
!!!SampleActualRank: 11, 44
!!!SampleID#: 404, 1091
!!!SampleTargetRank: 12, 44
